svgs/duotone/border-right.svg

<svg xmlns="http://www.w3.org/2000/svg" viewBox="0 0 448 512"><!-- Font Awesome Pro 6.0.0-alpha2 by @fontawesome - https://fontawesome.com License - https://fontawesome.com/license (Commercial License) --><defs><style>.fa-secondary{opacity:.4}</style></defs><path d="M240 224H208C199.125 224 192 231.125 192 240V272C192 280.875 199.125 288 208 288H240C248.875 288 256 280.875 256 272V240C256 231.125 248.875 224 240 224ZM336 224H304C295.125 224 288 231.125 288 240V272C288 280.875 295.125 288 304 288H336C344.875 288 352 280.875 352 272V240C352 231.125 344.875 224 336 224ZM144 224H112C103.125 224 96 231.125 96 240V272C96 280.875 103.125 288 112 288H144C152.875 288 160 280.875 160 272V240C160 231.125 152.875 224 144 224ZM240 416H208C199.125 416 192 423.125 192 432V464C192 472.875 199.125 480 208 480H240C248.875 480 256 472.875 256 464V432C256 423.125 248.875 416 240 416ZM336 416H304C295.125 416 288 423.125 288 432V464C288 472.875 295.125 480 304 480H336C344.875 480 352 472.875 352 464V432C352 423.125 344.875 416 336 416ZM240 320H208C199.125 320 192 327.125 192 336V368C192 376.875 199.125 384 208 384H240C248.875 384 256 376.875 256 368V336C256 327.125 248.875 320 240 320ZM240 128H208C199.125 128 192 135.125 192 144V176C192 184.875 199.125 192 208 192H240C248.875 192 256 184.875 256 176V144C256 135.125 248.875 128 240 128ZM144 416H112C103.125 416 96 423.125 96 432V464C96 472.875 103.125 480 112 480H144C152.875 480 160 472.875 160 464V432C160 423.125 152.875 416 144 416ZM240 32H208C199.125 32 192 39.125 192 48V80C192 88.875 199.125 96 208 96H240C248.875 96 256 88.875 256 80V48C256 39.125 248.875 32 240 32ZM336 32H304C295.125 32 288 39.125 288 48V80C288 88.875 295.125 96 304 96H336C344.875 96 352 88.875 352 80V48C352 39.125 344.875 32 336 32ZM48 224H16C7.125 224 0 231.125 0 240V272C0 280.875 7.125 288 16 288H48C56.875 288 64 280.875 64 272V240C64 231.125 56.875 224 48 224ZM48 416H16C7.125 416 0 423.125 0 432V464C0 472.875 7.125 480 16 480H48C56.875 480 64 472.875 64 464V432C64 423.125 56.875 416 48 416ZM48 320H16C7.125 320 0 327.125 0 336V368C0 376.875 7.125 384 16 384H48C56.875 384 64 376.875 64 368V336C64 327.125 56.875 320 48 320ZM48 128H16C7.125 128 0 135.125 0 144V176C0 184.875 7.125 192 16 192H48C56.875 192 64 184.875 64 176V144C64 135.125 56.875 128 48 128ZM48 32H16C7.125 32 0 39.125 0 48V80C0 88.875 7.125 96 16 96H48C56.875 96 64 88.875 64 80V48C64 39.125 56.875 32 48 32ZM144 32H112C103.125 32 96 39.125 96 48V80C96 88.875 103.125 96 112 96H144C152.875 96 160 88.875 160 80V48C160 39.125 152.875 32 144 32Z" class="fa-secondary"/><path d="M448 64V448C448 465.673 433.673 480 416 480H416C398.327 480 384 465.673 384 448V64C384 46.327 398.327 32 416 32H416C433.673 32 448 46.327 448 64Z" class="fa-primary"/></svg>

<svg xmlns="http://www.w3.org/2000/svg" viewBox="0 0 448 512"><!-- Font Awesome Pro 5.15.1 by @fontawesome - https://fontawesome.com License - https://fontawesome.com/license (Commercial License) --><defs><style>.fa-secondary{opacity:.4}</style></defs><path d="M240 224h-32a16 16 0 0 0-16 16v32a16 16 0 0 0 16 16h32a16 16 0 0 0 16-16v-32a16 16 0 0 0-16-16zm96 0h-32a16 16 0 0 0-16 16v32a16 16 0 0 0 16 16h32a16 16 0 0 0 16-16v-32a16 16 0 0 0-16-16zm-192 0h-32a16 16 0 0 0-16 16v32a16 16 0 0 0 16 16h32a16 16 0 0 0 16-16v-32a16 16 0 0 0-16-16zm96 192h-32a16 16 0 0 0-16 16v32a16 16 0 0 0 16 16h32a16 16 0 0 0 16-16v-32a16 16 0 0 0-16-16zm96 0h-32a16 16 0 0 0-16 16v32a16 16 0 0 0 16 16h32a16 16 0 0 0 16-16v-32a16 16 0 0 0-16-16zm-96-96h-32a16 16 0 0 0-16 16v32a16 16 0 0 0 16 16h32a16 16 0 0 0 16-16v-32a16 16 0 0 0-16-16zm0-192h-32a16 16 0 0 0-16 16v32a16 16 0 0 0 16 16h32a16 16 0 0 0 16-16v-32a16 16 0 0 0-16-16zm-96 288h-32a16 16 0 0 0-16 16v32a16 16 0 0 0 16 16h32a16 16 0 0 0 16-16v-32a16 16 0 0 0-16-16zm96-384h-32a16 16 0 0 0-16 16v32a16 16 0 0 0 16 16h32a16 16 0 0 0 16-16V48a16 16 0 0 0-16-16zm96 0h-32a16 16 0 0 0-16 16v32a16 16 0 0 0 16 16h32a16 16 0 0 0 16-16V48a16 16 0 0 0-16-16zM48 224H16a16 16 0 0 0-16 16v32a16 16 0 0 0 16 16h32a16 16 0 0 0 16-16v-32a16 16 0 0 0-16-16zm0 192H16a16 16 0 0 0-16 16v32a16 16 0 0 0 16 16h32a16 16 0 0 0 16-16v-32a16 16 0 0 0-16-16zm0-96H16a16 16 0 0 0-16 16v32a16 16 0 0 0 16 16h32a16 16 0 0 0 16-16v-32a16 16 0 0 0-16-16zm0-192H16a16 16 0 0 0-16 16v32a16 16 0 0 0 16 16h32a16 16 0 0 0 16-16v-32a16 16 0 0 0-16-16zm0-96H16A16 16 0 0 0 0 48v32a16 16 0 0 0 16 16h32a16 16 0 0 0 16-16V48a16 16 0 0 0-16-16zm96 0h-32a16 16 0 0 0-16 16v32a16 16 0 0 0 16 16h32a16 16 0 0 0 16-16V48a16 16 0 0 0-16-16z" class="fa-secondary"/><path d="M432 32h-32a16 16 0 0 0-16 16v416a16 16 0 0 0 16 16h32a16 16 0 0 0 16-16V48a16 16 0 0 0-16-16z" class="fa-primary"/></svg>
